X: 3906
T: Blackberry Blossom, The
R: reel
M: 4/4
K: Gmajor
eaaa a2 ge|dBAc BGGA|B2 BA Bdge|dBAc BG G2|
a2 gb a2 ge|dBAc BGGA|B2 BA Bdge|dBAc BG G2||
|:eaaa a2 ba|g2 dg gaba|g3 b a3 b|gaba gedg:|

